src/components/Sprite/svg/pensive.svg

<?xml version="1.0" encoding="UTF-8" standalone="no"?>
<svg
   xmlns:dc="http://purl.org/dc/elements/1.1/"
   xmlns:cc="http://creativecommons.org/ns#"
   xmlns:rdf="http://www.w3.org/1999/02/22-rdf-syntax-ns#"
   xmlns:svg="http://www.w3.org/2000/svg"
   xmlns="http://www.w3.org/2000/svg"
   xmlns:sodipodi="http://sodipodi.sourceforge.net/DTD/sodipodi-0.dtd"
   xmlns:inkscape="http://www.inkscape.org/namespaces/inkscape"
   width="128"
   height="128"
   viewBox="0 0 128 128"
   version="1.1"
   id="svg8"
   inkscape:version="1.0 (4035a4f, 2020-05-01)"
   sodipodi:docname="pensive.svg">
  <defs
     id="defs2" />
  <sodipodi:namedview
     id="base"
     pagecolor="#ffffff"
     bordercolor="#666666"
     borderopacity="1.0"
     inkscape:pageopacity="0.0"
     inkscape:pageshadow="2"
     inkscape:zoom="12.321585"
     inkscape:cx="54.132025"
     inkscape:cy="58.005368"
     inkscape:document-units="px"
     inkscape:current-layer="layer1"
     inkscape:document-rotation="0"
     showgrid="true"
     units="px"
     inkscape:window-width="2560"
     inkscape:window-height="1331"
     inkscape:window-x="0"
     inkscape:window-y="25"
     inkscape:window-maximized="0">
    <inkscape:grid
       type="xygrid"
       id="grid10"
       empspacing="4" />
    <inkscape:grid
       type="xygrid"
       id="grid12"
       spacingx="8"
       spacingy="8"
       empspacing="2" />
  </sodipodi:namedview>
  <metadata
     id="metadata5">
    <rdf:RDF>
      <cc:Work
         rdf:about="">
        <dc:format>image/svg+xml</dc:format>
        <dc:type
           rdf:resource="http://purl.org/dc/dcmitype/StillImage" />
        <dc:title />
      </cc:Work>
    </rdf:RDF>
  </metadata>
  <g
     inkscape:label="Layer 1"
     inkscape:groupmode="layer"
     id="layer1">
    <path
       d="M 120,64 A 56,56 0 0 1 64,120 56,56 0 0 1 8,64 56,56 0 0 1 64,8 56,56 0 0 1 120,64"
       style="fill:#ffc107;stroke-width:8;stroke-linecap:round;stroke-linejoin:round"
       id="path16" />
    <path
       d="M 72,92 A 8,12 0 0 1 64,104 8,12 0 0 1 56,92 8,12 0 0 1 64,80 8,12 0 0 1 72,92"
       style="fill:#37474f;stroke-width:9.79796;stroke-linecap:round;stroke-linejoin:round"
       id="circle883" />
    <path
       id="path1417"
       d="M 39.945312 40 A 4 4 0 0 0 37.171875 41.171875 A 4 4 0 0 0 37.171875 46.828125 L 42.34375 52 L 37.171875 57.171875 A 4 4 0 0 0 37.171875 62.828125 A 4 4 0 0 0 42.828125 62.828125 L 50.828125 54.828125 A 4.0004 4.0004 0 0 0 50.828125 49.171875 L 42.828125 41.171875 A 4 4 0 0 0 39.945312 40 z "
       style="color:#000000;font-style:normal;font-variant:normal;font-weight:normal;font-stretch:normal;font-size:medium;line-height:normal;font-family:sans-serif;font-variant-ligatures:normal;font-variant-position:normal;font-variant-caps:normal;font-variant-numeric:normal;font-variant-alternates:normal;font-variant-east-asian:normal;font-feature-settings:normal;font-variation-settings:normal;text-indent:0;text-align:start;text-decoration:none;text-decoration-line:none;text-decoration-style:solid;text-decoration-color:#000000;letter-spacing:normal;word-spacing:normal;text-transform:none;writing-mode:lr-tb;direction:ltr;text-orientation:mixed;dominant-baseline:auto;baseline-shift:baseline;text-anchor:start;white-space:normal;shape-padding:0;shape-margin:0;inline-size:0;clip-rule:nonzero;display:inline;overflow:visible;visibility:visible;isolation:auto;mix-blend-mode:normal;color-interpolation:sRGB;color-interpolation-filters:linearRGB;solid-color:#000000;solid-opacity:1;vector-effect:none;fill:#37474f;fill-opacity:1;fill-rule:nonzero;stroke:none;stroke-width:8;stroke-linecap:round;stroke-linejoin:round;stroke-miterlimit:4;stroke-dasharray:none;stroke-dashoffset:0;stroke-opacity:1;color-rendering:auto;image-rendering:auto;shape-rendering:auto;text-rendering:auto;enable-background:accumulate;stop-color:#000000;stop-opacity:1;opacity:1" />
    <path
       id="path1421"
       d="M 87.945312 40 A 4 4 0 0 0 85.171875 41.171875 L 77.171875 49.171875 A 4.0004 4.0004 0 0 0 77.171875 54.828125 L 85.171875 62.828125 A 4 4 0 0 0 90.828125 62.828125 A 4 4 0 0 0 90.828125 57.171875 L 85.65625 52 L 90.828125 46.828125 A 4 4 0 0 0 90.828125 41.171875 A 4 4 0 0 0 87.945312 40 z "
       style="color:#000000;font-style:normal;font-variant:normal;font-weight:normal;font-stretch:normal;font-size:medium;line-height:normal;font-family:sans-serif;font-variant-ligatures:normal;font-variant-position:normal;font-variant-caps:normal;font-variant-numeric:normal;font-variant-alternates:normal;font-variant-east-asian:normal;font-feature-settings:normal;font-variation-settings:normal;text-indent:0;text-align:start;text-decoration:none;text-decoration-line:none;text-decoration-style:solid;text-decoration-color:#000000;letter-spacing:normal;word-spacing:normal;text-transform:none;writing-mode:lr-tb;direction:ltr;text-orientation:mixed;dominant-baseline:auto;baseline-shift:baseline;text-anchor:start;white-space:normal;shape-padding:0;shape-margin:0;inline-size:0;clip-rule:nonzero;display:inline;overflow:visible;visibility:visible;isolation:auto;mix-blend-mode:normal;color-interpolation:sRGB;color-interpolation-filters:linearRGB;solid-color:#000000;solid-opacity:1;vector-effect:none;fill:#37474f;fill-opacity:1;fill-rule:nonzero;stroke:none;stroke-width:8;stroke-linecap:round;stroke-linejoin:round;stroke-miterlimit:4;stroke-dasharray:none;stroke-dashoffset:0;stroke-opacity:1;color-rendering:auto;image-rendering:auto;shape-rendering:auto;text-rendering:auto;enable-background:accumulate;stop-color:#000000;stop-opacity:1;opacity:1" />
  </g>
</svg>

<svg xmlns="http://www.w3.org/2000/svg" viewBox="0 0 128 128">
    <path fill="#ffc107" d="M120 64a56 56 0 01-56 56A56 56 0 018 64 56 56 0 0164 8a56 56 0 0156 56"/>
    <path fill="#37474f" d="M72 92a8 12 0 01-8 12 8 12 0 01-8-12 8 12 0 018-12 8 12 0 018 12M39.945 40a4 4 0 00-2.773 1.172 4 4 0 000 5.656L42.344 52l-5.172 5.172a4 4 0 000 5.656 4 4 0 005.656 0l8-8a4 4 0 000-5.656l-8-8A4 4 0 0039.945 40zm48 0a4 4 0 00-2.773 1.172l-8 8a4 4 0 000 5.656l8 8a4 4 0 005.656 0 4 4 0 000-5.656L85.656 52l5.172-5.172a4 4 0 000-5.656A4 4 0 0087.945 40z"/>
</svg>
